X:1
T:Title
%%score { ( 1 3 ) | ( 2 4 ) }
L:1/8
M:3/4
K:Eb
V:1 treble nm="Grand Piano"
V:3 treble 
V:2 bass 
V:4 bass 
V:1
 z2 z2[Q:1/4=118] EF | G2 G2 G2 | G2 G2 [FA]2 | [GB]2 [GB]2 [GB]2 | [GB]4 [GB][GB] | %5
 [Ac]2 [ce]2 [Ac]2 | [GB]2 G2 A2 | B2 A2 G2 | [DF]4 EF | G2 G2 G2 | G2 G2 [FA]2 | %11
 [GB]2 [GB]2 [GB]2 | [GB]4 [GB][GB] | [EAc]2 [Ece]2 [EAc]2 | [EGB]2 [B,EG]2 [G,E]2 | %15
 [B,EG]2 [B,FA]2 [A,DF]2 | [G,E]6 | [DF]6 | [DF]2 c2 B2 | [E-G]6 | E4 z2 | [DF]6 | [DF]2 c2 B2 | %23
 [EG]6- | [EG]4 z2 | [Ee]2 [Ge]2 [Ge]2 | d2 d2 d2 | c2 c2 [EAc]2 | [EGB]4 [DGB]2 | %29
 [CFA]2 [CFA]2 [CFA]2 | [B,EG]2 [G,E]2 [A,DF]2 | [G,E]6- |[M:2/4] [G,E]4 |] %33
V:2
 z2 z2 [E,G,][E,A,E] | [E,B,E]2 [E,B,E]2 [E,B,E]2 | [E,B,E]2 [E,B,E]2 [E,B,]2 | %3
 [E,E]2 [E,E]2 [E,E]2 | [E,E]4 [E,E][E,E] | [A,E]2 [A,E]2 [A,E]2 | [E,E]2 [E,B,E]2 [F,B,E]2 | %7
 [G,B,E]2 [F,B,D]2 [E,B,E]2 | [B,,B,]4 [E,G,][E,A,E] | [E,B,E]2 [E,B,E]2 [E,B,E]2 | %10
 [E,B,E]2 [E,B,E]2 [E,B,]2 | [E,E]2 [E,E]2 [E,E]2 | [E,E]4 [E,E][E,E] | A,2 A,2 A,2 | E,2 E,2 E,2 | %15
 B,,2 B,,2 B,,2 | E,6 | B,,2 B,,2 B,,2 | z2 D2 D2 | E,2 E,2 E,2 | [G,B,]4 [E,B,E]2 | %21
 [B,,B,]2 B,,2 B,,2 | z2 D2 D2 | E,2 E,2 E,2 | E,4 D,2 | [C,C]2 [C,C]2 [E,C]2 | %26
 [G,B,F]2 [G,B,F]2 [G,B,F]2 | [A,CE]2 [A,CE]2[K:bass] A,,2 | E,4 E,2 | F,2 F,2 F,2 | %30
 B,,2 B,,2 B,,2 | E,6- |[M:2/4] E,4 |] %33
V:3
 x6 | x6 | x6 | x6 | x6 | x6 | x6 | x6 | x6 | x6 | x6 | x6 | x6 | x6 | x6 | x6 | x6 | B,2 B,2 B,2 | %18
 x6 | B,2 B,2 B,2 | B4 G2 | z2 B,2 B,2 | x6 | B,2 B,2 B,2 | B,4 [B,FB]2 | x6 | x6 | x6 | x6 | x6 | %30
 x6 | x6 |[M:2/4] x4 |] %33
V:4
 x6 | x6 | x6 | x6 | x6 | x6 | x6 | x6 | x6 | x6 | x6 | x6 | x6 | x6 | x6 | x6 | x6 | x6 | %18
 [B,,B,]6 | x6 | x6 | x6 | [B,,B,]6 | x6 | x6 | x6 | x6 | x4[K:bass] x2 | x6 | x6 | x6 | x6 | %32
[M:2/4] x4 |] %33

